X: 10081
T: CAWDOR FAIR
Q: "Slow"
R: strathspey
B: "Edinburgh Repository of Music" v.1 p.8 #1
F: http://digital.nls.uk/special-collections-of-printed-music/pageturner.cfm?id=87776133
Z: 2015 John Chambers <jc:trillian.mit.edu>
M: C
L: 1/8
K: D
A |\
d>cBA B<dF2 | A>BAF A3c |\
d>cBA B<dF2 | E<E F>A B2B :|
|: A |\
A>d d>d Td2 d>d | B>e e>e Te2 d>e |\
f>ed>c d>cB>A | (B/c/d) (c/d/e) d2d :|
